svgs/thin/xmarks-lines.svg

<svg xmlns="http://www.w3.org/2000/svg" viewBox="0 0 640 512"><!--! Font Awesome Pro 6.4.0 by @fontawesome - https://fontawesome.com License - https://fontawesome.com/license (Commercial License) Copyright 2023 Fonticons, Inc. --><path d="M8 32H632c4.4 0 8 3.6 8 8s-3.6 8-8 8H8c-4.4 0-8-3.6-8-8s3.6-8 8-8zM8 464H632c4.4 0 8 3.6 8 8s-3.6 8-8 8H8c-4.4 0-8-3.6-8-8s3.6-8 8-8zm99.3-208l82.3 82.3c3.1 3.1 3.1 8.2 0 11.3s-8.2 3.1-11.3 0L96 267.3 13.7 349.7c-3.1 3.1-8.2 3.1-11.3 0s-3.1-8.2 0-11.3L84.7 256 2.3 173.7c-3.1-3.1-3.1-8.2 0-11.3s8.2-3.1 11.3 0L96 244.7l82.3-82.3c3.1-3.1 8.2-3.1 11.3 0s3.1 8.2 0 11.3L107.3 256zm130.3-93.7L320 244.7l82.3-82.3c3.1-3.1 8.2-3.1 11.3 0s3.1 8.2 0 11.3L331.3 256l82.3 82.3c3.1 3.1 3.1 8.2 0 11.3s-8.2 3.1-11.3 0L320 267.3l-82.3 82.3c-3.1 3.1-8.2 3.1-11.3 0s-3.1-8.2 0-11.3L308.7 256l-82.3-82.3c-3.1-3.1-3.1-8.2 0-11.3s8.2-3.1 11.3 0zm212.7 0c3.1-3.1 8.2-3.1 11.3 0L544 244.7l82.3-82.3c3.1-3.1 8.2-3.1 11.3 0s3.1 8.2 0 11.3L555.3 256l82.3 82.3c3.1 3.1 3.1 8.2 0 11.3s-8.2 3.1-11.3 0L544 267.3l-82.3 82.3c-3.1 3.1-8.2 3.1-11.3 0s-3.1-8.2 0-11.3L532.7 256l-82.3-82.3c-3.1-3.1-3.1-8.2 0-11.3zM0 424c0-4.4 3.6-8 8-8H632c4.4 0 8 3.6 8 8s-3.6 8-8 8H8c-4.4 0-8-3.6-8-8zM8 80H632c4.4 0 8 3.6 8 8s-3.6 8-8 8H8c-4.4 0-8-3.6-8-8s3.6-8 8-8z"/></svg>

<svg xmlns="http://www.w3.org/2000/svg" viewBox="0 0 640 512"><!--! Font Awesome Pro 6.3.0 by @fontawesome - https://fontawesome.com License - https://fontawesome.com/license (Commercial License) Copyright 2023 Fonticons, Inc. --><path d="M632 32C636.4 32 640 35.58 640 40C640 44.42 636.4 48 632 48H8C3.582 48 0 44.42 0 40C0 35.58 3.582 32 8 32H632zM632 464C636.4 464 640 467.6 640 472C640 476.4 636.4 480 632 480H8C3.582 480 0 476.4 0 472C0 467.6 3.582 464 8 464H632zM107.3 256L189.7 338.3C192.8 341.5 192.8 346.5 189.7 349.7C186.5 352.8 181.5 352.8 178.3 349.7L96 267.3L13.66 349.7C10.53 352.8 5.468 352.8 2.343 349.7C-.7808 346.5-.7808 341.5 2.343 338.3L84.69 256L2.343 173.7C-.7808 170.5-.7808 165.5 2.343 162.3C5.468 159.2 10.53 159.2 13.66 162.3L96 244.7L178.3 162.3C181.5 159.2 186.5 159.2 189.7 162.3C192.8 165.5 192.8 170.5 189.7 173.7L107.3 256zM320 244.7L402.3 162.3C405.5 159.2 410.5 159.2 413.7 162.3C416.8 165.5 416.8 170.5 413.7 173.7L331.3 256L413.7 338.3C416.8 341.5 416.8 346.5 413.7 349.7C410.5 352.8 405.5 352.8 402.3 349.7L320 267.3L237.7 349.7C234.5 352.8 229.5 352.8 226.3 349.7C223.2 346.5 223.2 341.5 226.3 338.3L308.7 256L226.3 173.7C223.2 170.5 223.2 165.5 226.3 162.3C229.5 159.2 234.5 159.2 237.7 162.3L320 244.7zM450.3 162.3C453.5 159.2 458.5 159.2 461.7 162.3L544 244.7L626.3 162.3C629.5 159.2 634.5 159.2 637.7 162.3C640.8 165.5 640.8 170.5 637.7 173.7L555.3 255.1L637.7 338.3C640.8 341.5 640.8 346.5 637.7 349.7C634.5 352.8 629.5 352.8 626.3 349.7L544 267.3L461.7 349.7C458.5 352.8 453.5 352.8 450.3 349.7C447.2 346.5 447.2 341.5 450.3 338.3L532.7 255.1L450.3 173.7C447.2 170.5 447.2 165.5 450.3 162.3V162.3zM0 424C0 419.6 3.582 416 8 416H632C636.4 416 640 419.6 640 424C640 428.4 636.4 432 632 432H8C3.582 432 0 428.4 0 424zM632 80C636.4 80 640 83.58 640 88C640 92.42 636.4 96 632 96H8C3.582 96 0 92.42 0 88C0 83.58 3.582 80 8 80H632z"/></svg>
